X:4
T: Graf und Nonne (Die Nonne)
N: Q0155C
O: Mitteleuropa, Deutschland (BRD) , Nordrhein - Westfalen, Meurs
N: Anhaengsel an der dritten Zeile.
R: Ballade, Standesunterschied, vergebliche Werbung, Liebe, Klage
M: 2/4
L: 1/32
K: F
F2A2 | c6f2c2A2B2G2 | A8G4
G3B | A4A2c2=B4B2d2 | c8z4
c4 | f4f2f2e2d2c4 | d8c4z2c2 | c6B2A4
c4 | d4c2B2A4G4 | F8z4

